public/img/assets/icons/weather-conditions/thunder-rain.svg

<svg width="120" height="120" viewBox="0 0 120 120" fill="none" xmlns="http://www.w3.org/2000/svg">
<path d="M82.9375 44.8C82.8496 44.8 82.7764 44.8294 82.7031 44.8294C82.8643 44.0656 82.9375 43.2725 82.9375 42.45C82.9375 35.9581 77.6934 30.7 71.2188 30.7C67.6152 30.7 64.4365 32.3597 62.2832 34.93C59.5586 29.6425 54.124 26 47.7813 26C38.7139 26 31.375 33.3584 31.375 42.45C31.375 43.5222 31.4922 44.5503 31.6826 45.5638C26.0723 47.4144 22 52.6578 22 58.9C22 66.6844 28.2988 73 36.0625 73H82.9375C90.7012 73 97 66.6844 97 58.9C97 51.1156 90.7012 44.8 82.9375 44.8Z" fill="#3FD5FE"/>
<path d="M80 76.2222V64L71 79.7778H80V92L89 76.2222H80Z" fill="#6A9CFF"/>
<path d="M38 76.2222V64L29 79.7778H38V92L47 76.2222H38Z" fill="#6A9CFF"/>
<path d="M59 85.2222V73L50 88.7778H59V101L68 85.2222H59Z" fill="#6A9CFF"/>
<path fill-rule="evenodd" clip-rule="evenodd" d="M79.9999 73V64L74.8661 73H79.9999ZM37.9999 73V64L33.0511 72.6757C34.0213 72.8881 35.0289 73 36.0624 73H37.9999Z" fill="#3377FF"/>
<path d="M47.2308 94.6484C45.8769 99.2726 43 100.522 43 103.782C43 106.667 45.274 109 48.0769 109C50.8798 109 53.1538 106.667 53.1538 103.782C53.1538 100.512 50.2769 99.2934 48.9231 94.6484C48.6904 93.8048 47.4952 93.7632 47.2308 94.6484Z" fill="#6A9CFF"/>
<path d="M69.2308 94.6484C67.8769 99.2726 65 100.522 65 103.782C65 106.667 67.274 109 70.0769 109C72.8798 109 75.1538 106.667 75.1538 103.782C75.1538 100.512 72.2769 99.2934 70.9231 94.6484C70.6904 93.8048 69.4952 93.7632 69.2308 94.6484Z" fill="#6A9CFF"/>
</svg>

<svg width="120" height="120" fill="none" xmlns="http://www.w3.org/2000/svg"><path d="M82.938 44.8c-.088 0-.162.03-.235.03.161-.764.234-1.557.234-2.38 0-6.492-5.244-11.75-11.718-11.75-3.604 0-6.782 1.66-8.936 4.23C59.56 29.642 54.124 26 47.781 26c-9.067 0-16.406 7.358-16.406 16.45 0 1.072.117 2.1.308 3.114C26.073 47.414 22 52.658 22 58.9 22 66.684 28.299 73 36.063 73h46.874C90.701 73 97 66.684 97 58.9s-6.299-14.1-14.063-14.1Z" fill="#3FD5FE"/><path d="M80 76.222V64l-9 15.778h9V92l9-15.778h-9ZM38 76.222V64l-9 15.778h9V92l9-15.778h-9ZM59 85.222V73l-9 15.778h9V101l9-15.778h-9Z" fill="#6A9CFF"/><path fill-rule="evenodd" clip-rule="evenodd" d="M80 73v-9l-5.134 9H80Zm-42 0v-9l-4.949 8.676c.97.212 1.978.324 3.011.324H38Z" fill="#37F"/><path d="M47.23 94.648c-1.353 4.625-4.23 5.874-4.23 9.134 0 2.885 2.274 5.218 5.077 5.218s5.077-2.333 5.077-5.218c0-3.27-2.877-4.489-4.23-9.134-.234-.843-1.429-.885-1.693 0ZM69.23 94.648c-1.353 4.625-4.23 5.874-4.23 9.134 0 2.885 2.274 5.218 5.077 5.218s5.077-2.333 5.077-5.218c0-3.27-2.877-4.489-4.23-9.134-.234-.843-1.429-.885-1.693 0Z" fill="#6A9CFF"/></svg>
